src/shared/assets/images/Dislike/DislikeIcon.svg

<svg width="71" height="70" viewBox="0 0 71 70" fill="none" xmlns="http://www.w3.org/2000/svg">
<rect x="5.5" y="3.5" width="59" height="59" rx="29.5" stroke="#FF4458"/>
<g filter="url(#filter0_d_1_14240)">
<rect x="6" y="4" width="58" height="58" rx="29" fill="white" fill-opacity="0.01" shape-rendering="crispEdges"/>
<g clip-path="url(#clip0_1_14240)">
<path d="M39.1567 33L44.918 38.6888C46.194 39.8694 46.194 41.6384 44.918 42.9168C43.9356 44.194 41.9721 44.194 40.794 42.9168L35 37.2533L29.3051 42.8177C28.127 44.0961 26.3592 44.0961 25.082 42.8177C23.806 41.8353 23.806 39.8694 25.082 38.6888L30.7346 33L25.1811 27.2858C23.806 26.1065 23.806 24.3375 25.1811 23.1569C25.4002 22.8387 25.6935 22.5784 26.0355 22.3987C26.3776 22.2189 26.7582 22.125 27.1446 22.125C27.531 22.125 27.9117 22.2189 28.2537 22.3987C28.5958 22.5784 28.889 22.8387 29.1082 23.1569L35 28.6754L40.6949 23.1569C41.873 21.7806 43.6408 21.7806 44.8189 23.1569C46.0961 24.1405 46.0961 26.1052 44.8189 27.2858L39.1567 33Z" fill="#F3485B"/>
</g>
</g>
<defs>
<filter id="filter0_d_1_14240" x="0" y="0" width="71" height="70" filterUnits="userSpaceOnUse" color-interpolation-filters="sRGB">
<feFlood flood-opacity="0" result="BackgroundImageFix"/>
<feColorMatrix in="SourceAlpha" type="matrix" values="0 0 0 0 0 0 0 0 0 0 0 0 0 0 0 0 0 0 127 0" result="hardAlpha"/>
<feOffset dy="2"/>
<feGaussianBlur stdDeviation="3"/>
<feComposite in2="hardAlpha" operator="out"/>
<feColorMatrix type="matrix" values="0 0 0 0 0.396078 0 0 0 0 0.431373 0 0 0 0 0.482353 0 0 0 0.12 0"/>
<feBlend mode="normal" in2="BackgroundImageFix" result="effect1_dropShadow_1_14240"/>
<feBlend mode="normal" in="SourceGraphic" in2="effect1_dropShadow_1_14240" result="shape"/>
</filter>
<clipPath id="clip0_1_14240">
<rect width="29" height="29" fill="white" transform="translate(20.5 18.5)"/>
</clipPath>
</defs>
</svg>

<svg xmlns="http://www.w3.org/2000/svg" width="71" height="70" fill="none"><rect width="59" height="59" x="5.5" y="3.5" stroke="#FF4458" rx="29.5"/><g filter="url(#a)"><rect width="58" height="58" x="6" y="4" fill="#fff" fill-opacity=".01" rx="29" shape-rendering="crispEdges"/><g clip-path="url(#b)"><path fill="#F3485B" d="m39.157 33 5.761 5.689c1.276 1.18 1.276 2.95 0 4.228-.982 1.277-2.946 1.277-4.124 0L35 37.253l-5.695 5.565c-1.178 1.278-2.946 1.278-4.223 0-1.276-.983-1.276-2.949 0-4.13L30.735 33l-5.554-5.714c-1.375-1.18-1.375-2.949 0-4.13a2.384 2.384 0 0 1 3.927 0L35 28.677l5.695-5.52c1.178-1.375 2.946-1.375 4.124 0 1.277.985 1.277 2.95 0 4.13z"/></g></g><defs><clipPath id="b"><path fill="#fff" d="M20.5 18.5h29v29h-29z"/></clipPath><filter id="a" width="71" height="70" x="0" y="0" color-interpolation-filters="sRGB" filterUnits="userSpaceOnUse"><feFlood flood-opacity="0" result="BackgroundImageFix"/><feColorMatrix in="SourceAlpha" result="hardAlpha" values="0 0 0 0 0 0 0 0 0 0 0 0 0 0 0 0 0 0 127 0"/><feOffset dy="2"/><feGaussianBlur stdDeviation="3"/><feComposite in2="hardAlpha" operator="out"/><feColorMatrix values="0 0 0 0 0.396078 0 0 0 0 0.431373 0 0 0 0 0.482353 0 0 0 0.12 0"/><feBlend in2="BackgroundImageFix" result="effect1_dropShadow_1_14240"/><feBlend in="SourceGraphic" in2="effect1_dropShadow_1_14240" result="shape"/></filter></defs></svg>
